X:1
T:O Christians, Haste
T:Text: Mary A Thomson (1834-1923), alt. Tune: James Walch (1837-1901)
T:11 10 11 10 Refrain TIDINGS www.hymnary.org/text/o_zion_haste_thy_mission_high_fulfilling
T:O Christians, Haste
T:This hymn is in the public domain.  You may freely use this score for personal and congregational worship.  If you reproduce the score, please credit Hymnary.org as the source. 
T:This hymn is in the public domain.  You may freely use this score for personal and congregational worship.  If you reproduce the score, please credit Hymnary.org as the source. 
T:This hymn is in the public domain.  You may freely use this score for personal and congregational worship.  If you reproduce the score, please credit Hymnary.org as the source. 
Z:This hymn is in the public domain.  You may freely use this score for personal and congregational worship.  If you reproduce the score, please credit Hymnary.org as the source.
%%score ( 1 2 ) ( 3 4 )
L:1/8
M:4/4
K:Bb
V:1 treble nm="Piano" snm="Pno."
V:2 treble 
V:3 bass nm="Piano" snm="Pno."
V:4 bass 
V:1
 [DB]4 [B,D]2 [B,E]2 | [B,F]6 F2 | [DF]2 [FB]2 [Fd]2 [Ec]2 | [Ec]4 [DB]4 | [GB]4 [FA]2 [EG]2 | %5
w: 3~Give of your|sons to|bear the mes- sage|glo- rious;|give of your|
w: 1~O Chris- tians,|haste, your|mis- sion high ful-|fil- ling,|to tell the|
w: 2~Pro- claim to|ev- ery|peo- ple, tongue, and|na- tion|that God, in|
 [DF]6 [DF]2 | A2 G2 [CF]2 [CE]2 | [B,D]8 | [B,D]4 E3 E | [B,F]6 [DF]2 | [D^F]2 [DG]2 [GB]2 A2 | %11
w: daugh- ters,|speed them on their|way.|Pour out your|soul for|them in prayer vic-|
w: world that|God is one who|cares,|that God who|made all|na- tions is not|
w: whom we|live and move, is|love.|Tell how God|stooped to|save a lost cre-|
 [^FA]4 G4 | [=EG]4 [FA]2 [EB]2 | [Fc]4 F4 | [DA]2 [DG]2 [CF]2 [C=E]2 | [CF]8 || [_EA]4 [EG]2 F2 | %17
w: to- rious,|till God shall|bring a|new and joy- ful|day.|Pu- blish glad|
w: wil- ling|one life should|pe- rish,|lost in deep des-|pair.||
w: a- tion,|and died on|earth that|we might live a-|bove.||
 [DB]4 F4 | [EA]4 [EG]2 F2 | d8 | [Fd]4 [Fe]2 [Fd]2 | (d2 c2) [EB]2 [EG]2 | %22
w: ti- dings,|ti- dings of|peace,|ti- dings of|Je- * sus, re-|
w: |||||
w: |||||
 [DF]2 [FB]2 [Ec]3 [DB] | [DB]8 |] %24
w: demp- tion, and re-|lease.|
w: ||
w: ||
V:2
 x8 | x6 E2 | x8 | x8 | x8 | x8 | E3 D x4 | x8 | x4 B,2 A,2 | x8 | x6 G2 | x4 G4 | x8 | x4 F4 | %14
 x8 | x8 || x6 E2 | x4 F4 | x6 E2 | (D4 F4) | x8 | E4 x4 | x8 | x8 |] %24
V:3
 [B,,F,]4 [B,,F,]2 [C,F,]2 | [D,F,]6 [C,A,]2 | [B,,B,]2 [D,B,]2 [F,B,]2 [F,A,]2 | [F,A,]4 [G,B,]4 | %4
 [E,B,]4 [E,B,]2 [G,B,]2 | B,6 [B,,B,]2 | [F,C]2 [F,B,]2 [F,,A,]2 [F,,A,]2 | [B,,F,]8 | %8
 [B,,F,]4 [C,F,]2 [C,F,]2 | [D,F,]6 [B,,B,]2 | [D,A,]2 [G,B,]2 [B,,D]2 [C,E]2 | D2 C2 [G,B,]4 | %12
 [C,B,]4 [C,C]2 [B,,C]2 | [A,,C]4 [D,A,]4 | [B,,B,]2 [B,,B,]2 [C,A,]2 [C,G,]2 | [F,,F,A,]8 || %16
 [F,C]4 [F,B,]2 [F,A,]2 | [B,,B,]4 [D,B,]4 | [F,C]4 [F,B,]2 [F,A,]2 | B,8 | %20
 [G,=B,]4 [G,B,]2 [G,B,]2 | [C,C]4 [E,G,]2 [E,B,]2 | [F,B,]2 [F,D]2 [F,,A,]3 [B,,B,] | [B,,B,]8 |] %24
V:4
 x8 | x8 | x8 | x8 | x8 | B,6 x2 | x8 | x8 | x8 | x8 | x8 | D,4 x4 | x8 | x8 | x8 | x8 || x8 | x8 | %18
 x8 | (B,4 _A,4) | x8 | x8 | x8 | x8 |] %24

